!!! OTL: Literature58
!!! Chapter: 5
!!! Section: II
!!! Page: 357
!!! Mode: 
!!! Encoder: ESM
**kern
*staff1
*I"Piano
=1-
*clefC4
*k[f#]
*e:
*M4/4
4r
4r
4r
4B\
=2
4e\
8e\L
8e\J
4e\
8f#\L
8e\J
=3
4d\
4B\
4.d\
8a\
=4
4b\
4b\
8b\L
8a\J
4g\
=5
2.a\
8g\L
8a\J
=6
4.b\
8a\
8g\L
8a\J
4b\
=7
4a\
8f#\L
8e\J
4d\
8g\L
8f#\J
=8
4e\
8d\L
8d\J
4B\
4d\
=9
!!linebreak:original
2.e\
4r
==
*-
